packages/icons/src/components/Icon/assets/small-solid/video.svg

<svg width="16" height="16" viewBox="0 0 16 16" fill="none" xmlns="http://www.w3.org/2000/svg">
<path d="M3.71429 4.57129C2.76751 4.57129 2 5.3388 2 6.28557V9.71415C2 10.6609 2.76751 11.4284 3.71429 11.4284H8C8.94677 11.4284 9.71429 10.6609 9.71429 9.71415V6.28557C9.71429 5.3388 8.94677 4.57129 8 4.57129H3.71429Z" fill="#727683"/>
<path d="M14 5.21417C14 4.95415 13.8434 4.71974 13.6032 4.62024C13.3629 4.52074 13.0864 4.57574 12.9026 4.7596L11.1883 6.47388C11.0677 6.59444 11 6.75795 11 6.92845V9.07131C11 9.2418 11.0677 9.40532 11.1883 9.52588L12.9026 11.2402C13.0864 11.424 13.3629 11.479 13.6032 11.3795C13.8434 11.28 14 11.0456 14 10.7856V5.21417Z" fill="#727683"/>
</svg>

<svg xmlns="http://www.w3.org/2000/svg" width="16" height="16" fill="none" viewBox="0 0 16 16">
    <path fill="#727683" d="M3.714 4.571C2.768 4.571 2 5.34 2 6.286v3.428c0 .947.768 1.714 1.714 1.714H8c.947 0 1.714-.767 1.714-1.714V6.286c0-.947-.767-1.715-1.714-1.715zM14 5.214a.643.643 0 0 0-1.097-.454l-1.715 1.714a.64.64 0 0 0-.188.454v2.143c0 .17.068.334.188.455l1.715 1.714A.643.643 0 0 0 14 10.786z"/>
</svg>
